X:1
T:II
T:II
L:1/8
Q:3/16=120
M:6/8
K:D
V:1 treble nm="Violin" snm="Vln."
V:1
|: B/b/^a/b/=a/b/ g/b/f/b/e/b/ | d/b/c/b/B/b/ ^A/b/B/b/d/b/ | c/^a/g/a/f/a/ e/a/d/a/c/a/ | %3
 B/^a/^A/a/B/a/ c/a/d/a/e/a/ | d/b/F/b/E/b/ D/b/C/b/B,/b/ | G/d'/B/d'/A/d'/ G/d'/F/d'/G/d'/ | %6
 F/d'/B/d'/G/d'/ F/d'/^E/d'/F/d'/ | ^E/d'/d/d'/c/d'/ B/d'/G/d'/E/d'/ | %8
 F/c'/^A/c'/G/c'/ F/c'/F/c'/F/c'/ | G/b/B/d'/A/c'/ G/b/F/b/^E/b/ | %10
 F/^a/f/f/^e/^g/ =e/a/d/b/^A/c'/ | B/d'/G/b/G/a/ G/g/G/f/G/^e/ | F/f/F/^a/G/^e/ F/f/F/a/G/e/ | %13
 F/f/F/^a/F/c'/ F/f'/F/c'/F/a/ | [Ff]3 z !fermata!z2 | d/a/^g/a/=g/a/ ^e/a/f/a/=e/a/ | %16
 d/a/A/a/G/a/ F/a/E/a/D/a/ | C/a/^g/a/=g/a/ ^d/a/e/a/=d/a/ | c/a/G/a/F/a/ E/a/A/a/G/a/ | %19
 F/d'/a/d'/^g/d'/ a/d'/f/d'/d/c'/ | g/c'/g/b/G/b/ E/b/C/b/c/b/ | f/b/f/a/F/a/ D/a/B,/a/B/a/ | %22
 e/a/e/g/E/g/ C/g/A,/g/A/g/ | d/f/[af']/D/[^g^e']/D/ [af']/D/[=g=e']/D/[fd']/D/ | %24
 [ec']/A/[A,c]/A/[B,d]/A/ [Ce]/A/[Df]/A/[Eg]/A/ | %25
 [Df]/D/[af']/D/[^g^e']/D/ [af']/D/[=g=e']/D/[fd']/D/ | %26
 [ec']/A/[A,c]/A/[B,d]/A/ [Ce]/A/[Df]/A/[Eg]/A/ | %27
 [Df]/D/[fa']/D/[eg']/D/ [df']/D/[eg']/D/[fa']/D/ | g/b'/d/b'/B/b'/ G/b'/B/d''/^G/d''/ | %29
 A/c''/B/d''/c/e''/ d/f''/B/d''/G/b'/ | F/a'/A/f'/D/f'/ E/g'/G/e'/C/e'/ | %31
 D/[d'f']/D/[c'e']/D/[bd']/ D/[ac']/D/[gb]/D/[fa]/ | %32
 G,/[bd']/G,/[ac']/G,/[gb]/ A,/[fa]/A,/[eg]/A,/[ce]/ | d/C/D/c/d/c'/ d'/g/f/e/d/c/ :| %34
 B/B,/^A,/B,/b/B,/ ^a/B,/=a/B,/^g/B,/ | g/B,/f/B,/e/B,/ ^d/B,/=d/B,/c/B,/ | %36
 B/b/^a/b/B,/b/ =C/b/^C/b/D/b/ | ^D/b/E/b/F/b/ A/b/G/b/F/b/ | e'/E/^D/E/e'/E/ ^d'/E/=d'/E/c'/E/ | %39
 =c'/E/b/E/a/E/ ^g/E/=g/E/f/E/ | e/e'/^d'/e'/E/e'/ =F/e'/^F/e'/G/e'/ | %41
 ^G/e'/A/e'/B/e'/ d/e'/c/e'/B/e'/ | a/A/^G/A/a/A/ a/A/^g/A/=g/A/ | %43
 f/D/C/D/d'/D/ d'/E/d'/=F/d'/^F/ | g/G/F/G/g/G/ g/G/f/G/=f/G/ | %45
 e/=C/B,/C/=c'/C/ c'/D/c'/_E/c'/=E/ | =f/=F/E/F/=c'/F/ d'/F/^c'/F/=c'/F/ | %47
 b/=F/_b/F/a/F/ _a/F/g/F/e/F/ | =f/=F/E/F/F/F/ E/F/_E/F/D/F/ | C/=F/=C/F/B,/F/ _B,/F/=B,/F/C/E/ | %50
 C/E/D/=F/_E/^F/ =E/G/F/_A/F/=A/ | G/_B/^G/=B/A/=c/ _B/^c/=B/d/=c/_e/ | %52
 c/e/d/=f/_e/^f/ =e/g/=f/_a/^f/=a/ | g/_b/_a/=b/=a/c'/ b/c'/b/g/e/c'/ | %54
 a/f/_e/b/^g/=f/ d/_b/=g/=e/c/a/ | f/_e/=c/_a/f/d/ B/g/=e/^c/_B/f/ | %56
 _e/=c/A/=f/d/B/ ^G/^e/d/B/=G/e/ | F/f/^e/f/E/^a/ D/b/C/c'/B,/d'/ | %58
 ^A,/e'/B,/d'/C/c'/ D/b/E/b/^E/b/ | ^a/F/^E/F/e'/^A/ d'/B/c'/c/b/d/ | %60
 ^a/e/b/d/c'/c/ d'/B/e'/B/^e'/B/ | ^A/f'/^e'/f'/F/f'/ G/f'/e'/f'/F/f'/ | %62
 E/f'/^e'/f'/^E/f'/ F/f'/e'/f'/=E/f'/ | D/f'/^e'/f'/D/f'/ E/g'/D/f'/C/=e'/ | %64
 B,/d'/C/e'/D/f'/ C/e'/B,/d'/^A,/c'/ | !fermata!z6 | B/b/^a/b/=a/b/ g/b/f/b/e/b/ | %67
 d/b/c/b/B/b/ ^A/b/B/b/d/b/ | c/^a/g/a/f/a/ e/a/d/a/c/a/ | B/^a/^A/a/B/a/ c/a/d/a/e/a/ | %70
 d/b/^d/b/e/g/ c/a/=d/f/B/g/ | c/e/^A/f/B/d/ G/B/d/^e/g/b/ | F/^A/c/f/^a/g/ f/a/c'/b/a/c'/ | %73
 e'/d'/c'/g'/f'/e'/ d'/c'/b/^a/g/f/ | b/c'/d'/b/c'/^a/ =c'/=a/b/^g/_b/=g/ | %75
 a/f/^g/^e/=g/=e/ f/^d/=f/=d/e/c/ | d/^e/g/e/f/B/ Tc3 | B/c/d/B/c/^A/ =c/=A/B/^G/_B/=G/ | %78
 A/F/_A/=F/G/E/ ^F/^D/=F/=D/E/C/ | D/^E/G/E/F/B,/ TC3 | B,/B/^A/B/F/f/ B/b/^a/b/f/f'/ | %81
 b/b'/^a'/b'/f/f'/ B/b/^a/b/F/f/ | B,/b/^a/b/d/b/ B/b/F/b/D/b/ | [B,Fdb]3 z z2 |] %84

